packages/tokens/icons/heart/size24Px.svg

<svg viewBox="0 0 24 24" fill="none" xmlns="http://www.w3.org/2000/svg" width="1em" height="1em"><path d="M12.9407 4.91819L12.9408 4.91811C14.9951 2.93056 18.2077 3.04556 20.1257 5.17936C22.0532 7.32375 21.9386 10.6897 19.874 12.6864L19.8737 12.6867L19.8529 12.7068L19.8528 12.707L12 20.3043L4.14749 12.707L4.14734 12.7068L4.12652 12.6867L4.12627 12.6864C2.0614 10.6897 1.94682 7.32374 3.87428 5.17936C5.79223 3.04556 9.00487 2.93056 11.0592 4.91811L11.0593 4.91819L11.6524 5.49175L12 5.82788L12.3476 5.49175L12.9407 4.91819Z" stroke="currentColor"/></svg>

<svg xmlns="http://www.w3.org/2000/svg" fill="none" viewBox="0 0 24 24" width="1em" height="1em"><path stroke="currentColor" d="M12.94 4.918c2.055-1.987 5.268-1.872 7.186.261 1.927 2.145 1.813 5.51-.252 7.507l-.021.02v.001L12 20.304l-7.853-7.597-.02-.02c-2.066-1.997-2.18-5.363-.253-7.508 1.918-2.133 5.13-2.248 7.185-.26l.593.573.348.336.348-.336.593-.574Z"/></svg>
